src/assets/duotone/ForwardSquare.svg

<svg width="24" height="24" viewBox="0 0 24 24"  xmlns="http://www.w3.org/2000/svg">
<path opacity="0.4" d="M16.19 2H7.82001C4.17001 2 2 4.17 2 7.81V16.18C2 19.82 4.17 21.99 7.81 21.99H16.18C19.82 21.99 21.99 19.82 21.99 16.18V7.81C22 4.17 19.83 2 16.19 2Z" />
<path d="M17.53 8.66006L15.96 7.09006C15.67 6.80006 15.19 6.80006 14.9 7.09006C14.61 7.38006 14.61 7.86006 14.9 8.15006L15.23 8.48006H10.08C7.97 8.48006 6.25 10.2001 6.25 12.3101C6.25 14.4201 7.97 16.1401 10.08 16.1401H15C15.41 16.1401 15.75 15.8001 15.75 15.3901C15.75 14.9801 15.41 14.6401 15 14.6401H10.08C8.8 14.6401 7.75 13.6001 7.75 12.3101C7.75 11.0201 8.79 9.98006 10.08 9.98006H15.16L14.9 10.2401C14.61 10.5301 14.61 11.0101 14.9 11.3001C15.05 11.4501 15.24 11.5201 15.43 11.5201C15.62 11.5201 15.81 11.4501 15.96 11.3001L17.53 9.73006C17.82 9.43006 17.82 8.96006 17.53 8.66006Z" />
</svg>

<?xml version="1.0" encoding="UTF-8"?>
<svg width="24" height="24" viewBox="0 0 24 24" xmlns="http://www.w3.org/2000/svg">
 <path d="m16.19 2h-8.37c-3.65 0-5.82 2.17-5.82 5.81v8.37c0 3.64 2.17 5.81 5.81 5.81h8.37c3.64 0 5.81-2.17 5.81-5.81v-8.37c0.01-3.64-2.16-5.81-5.8-5.81z" opacity=".4"/>
 <path d="m17.53 8.6601-1.57-1.57c-0.29-0.29-0.77-0.29-1.06 0s-0.29 0.77 0 1.06l0.33 0.33h-5.15c-2.11 0-3.83 1.72-3.83 3.83s1.72 3.83 3.83 3.83h4.92c0.41 0 0.75-0.34 0.75-0.75s-0.34-0.75-0.75-0.75h-4.92c-1.28 0-2.33-1.04-2.33-2.33s1.04-2.33 2.33-2.33h5.08l-0.26 0.26004c-0.29 0.29-0.29 0.77 0 1.06 0.15 0.15 0.34 0.22 0.53 0.22s0.38-0.07 0.53-0.22l1.57-1.57c0.29-0.3 0.29-0.77 0-1.07z"/>
</svg>
